X:1
T:Title
%%score { ( 1 4 ) | ( 2 3 ) }
L:1/8
M:3/4
K:G
V:1 treble nm="Grand Piano"
V:4 treble 
V:2 bass 
V:3 bass 
V:1
 z2 z2[Q:1/4=92] D2 | BB c2 B2 | BA G2 D2 | GG [EA]2 [EB]2 | [Ec]4 [FA]2 | BB c2 B2 | BA G2 B2 | %7
 AA B2 ^c2 | [Fd]4 d2 | [Ac]B A2 F2 | [B,G]A B2 Bc | de d2 BG | [FA]4 [DFA]2 | %13
 [DGB][DAc] [DBd]2 .[DGB]2 | .[CEc]2 [Ee]2 cA | GB B2 [FA]2 |[M:2/4] G4 |[M:1/4] [Fd]2 | %18
[M:3/4] [Fd][Gd] [Ad]2 z D | [Ac][GB] [GB]2 [Fd]2 | [Ac][GB] [FA]G FG | [DFA]4 [DFA]2 | %22
 [DGB][DAc] [DBd]2 .[DGB]2 | .[CEc]2 [Ee]2 cA | GB B2 [FA]2 |[M:2/4] G4 |] %26
V:2
 z2 z2 [G,B,]2 | [G,D][G,D] [G,E]2 [G,D]2 | [G,D][F,C] [G,B,]2 [G,B,]2 | %3
 [E,B,E][D,B,] [C,A,]2 [B,,^G,]2 | [A,,A,]4 [D,A,]2 | [G,G][G,D][K:bass] [G,E]2 [G,D]2 | %6
 [G,D][F,C] [G,B,]2[K:treble] [G,D]2 | [A,DF][A,DF] [A,^CG]2 [A,G]2 | [D,A,]4 F2 | %9
 z[K:treble] G F2 DC | z C D2 GA | Bc B2 GD/E/ | D,4 D,2 | G,G, G,2 z =F | %14
 z[K:treble] d[K:bass] [C,C]2 A,C | [D,B,D][D,G,D] [D,G,D]2 [D,C]2 |[M:2/4] [G,B,]4 | %17
[M:1/4] [D,A,]2 |[M:3/4] [D,A,][D,B,] [D,C]2 .[D,A,]2 | [G,D]2 [G,D]2 [D,D]2 | %20
 [D,D][D,D] C[B,D] A,B, | D,4 D,2 | G,G, G,2 z =F | z[K:treble] d[K:bass] [C,C]2 A,C | %24
 [D,B,D][D,G,D] [D,G,D]2 [D,C]2 |[M:2/4] [G,B,]4 |] %26
V:3
 x6 | x6 | D,2 z2 z2 | x6 | x6 | x2[K:bass] x4 | D,2 z2[K:treble] z2 | x6 | x6 | D,6[K:treble] | %10
 G,6- | G,6 | x6 | z2 z2 G,2 | C,2[K:treble][K:bass] z2 C,2 | x6 |[M:2/4] x4 |[M:1/4] x2 | %18
[M:3/4] x6 | x6 | z2 D,2 [D,D]2 | x6 | z2 z2 G,2 | C,2[K:treble][K:bass] z2 C,2 | x6 |[M:2/4] x4 |] %26
V:4
 x6 | x6 | x6 | x6 | x6 | x6 | x6 | x6 | x6 | x6 | x6 | x6 | x6 | x6 | z2 z2 E2 | x6 |[M:2/4] x4 | %17
[M:1/4] x2 |[M:3/4] z2 z2 [Fc]2 | x6 | x6 | x6 | x6 | z2 z2 E2 | x6 |[M:2/4] x4 |] %26

